X:1
T:Een nieuw begin - Aladdin
T:Een nieuw begin - Aladdin
T:Ans Grootaers
C:Ans Grootaers
L:1/8
M:4/4
K:C
V:1 treble nm="Piano" snm="Pno."
V:1
 E2 DF- FE C2 | G,8 | E2 DF- FE C2 | E4 D4 | D2 ^CE- ED B,2 | D2 C2 B,2 C2 |1 A, B,2 D- D C2 G,- | %7
w: On- ze we- * reld is|mooi,|span- nend, schit- * ter- end,|stra- lend.|'tIs een we- * reld waar-|in je al je|zor- gen snel * ver geet|
w: Maak je ho- * ri- zon|breed,|toon je won- * der na|won- der.|Al- les e- * ven bij-|zon- der op een||
 G,8 :|2 A, B,2 D- D C2 E- || E3 E F2 A2 | G8 | z2 z E F2 A2 | G2 DF- F2 EE- | E4 EF G2 | %14
w: _||* Vlieg met me|mee.|Van nu af|zijn we bei- * den vrij.|_ Nie- mand die|
w: |Per- zich to- * ver- kleed.|_ _ _ _|||||
 B2 A2 G3 C | B2 A2 G3 C | E2 D2 C2 A,2 | CD z E F2 A2 | G8 | z2 z E F2 A2 | G2 DF- F2 EE- | %21
w: ons ge- biedt: Mag|wel, mag niet. Of|zegt dat wij maar|dro- men Vlieg met je|mee.|'tIs of ik|door de ruim- * te glij.|
w: |||||||
 E4 EF G2 | B2 A2 G3 C | B2 c2 G3 C | E2 D2 C2 D2 | F2 E2 C2 B,2 | C8- | C4 z4 | E2 DF- FE C2 | %29
w: _ Wij staan nu|sa- men in een|nieuw be- gin. Een|nieu- we we- reld|wacht op jou en|mij.||Einde- lijk he- * le- maal|
w: ||||||||
 G,8 | E2 DF- FE C2 | E4 D4 | D2 ^CE- ED B,2 | D2 C2 B,2 C2 | A, B,2 D- D C2 E- | E2 z E F2 A2 | %36
w: vrij.|Wie had dat _ kun- nen|denk- en|Zwe- ven, tuim- * elen en|zwenk- en. Al die|ruim- te voor jou en mij.|_ Vlieg met je|
w: |||||||
 G8 | z2 z E F2 A2 | G2 DF- F2 EE- | E2 z E F2 G2 | B2 A2 G3 C | B2 c2 G3 C | E2 D2 C2 D2 | %43
w: mee|Hoe is dit|al- les ooit _ ont- staan?|_ Ben net een|me- te- oor. Ik|schiet maar door. Het|is te laat om|
w: |||||||
 F2 E2 C2 B,2 | C8- | C2 z E F2 A2 | G2 DF- F2 EE- | E2 z E F2 G2 | B2 A2 G3 C | B2 c2 G4 | %50
w: nu nog terug te|gaan.||||||
w: * Een nieuw be-|gin|* M'n hart is|vol van puur _ ge- luk|_ Wij staan nu|sa- men in een|nieuw be- gin|
 E2 D2 C2 D2 | F2 E2 C2 B,2 | C8- | C8 |] %54
w: ||||
w: De- ze we- reld|deel ik liefst met|jou|_|

